X: 11
T: My Love is a Band Boy
R: air, waltz
%S: s:2 b:32(16+16)
B: "O'Neill's 1850 #11"
Q: "Playfully"
O: F.O'Neill
Z: Norbert Paap, norbertp@bdu.uva.nl
M: 3/4
L: 1/8
K: Am
(AB) \
| (c2B2A2) | (G2E2D2) | (E2A2) .A2 | A4 (AB) |\
| c2d2e2 | g2e2.d2 | c2d2e2 | d4 (AB) |\
| c2d2e2 | g2e2d2 | c2d2e2 | G4 (ed) |\
| c2B2A2 | G2E2D2 | (E2A2) .A2 | A4 |]
|| (AB) \
| (c2E2).E2 | (G2E2).E2 | (c2E2).E2 | G4 (AB) |\
| c2B2A2 | G2E2D2 | (E2A2).A2 | A4 (AB) |\
| (c2E2).E2 | (G2E2).E2 | (c2E2).E2 | G4 (AB) |\
| (cBcde^f) | ({a}g2e2d2) | (c2A2).A2 | A4 |]
